!!!COM: Bach, Johann Sebastian
!!!OPR: Joh. Seb. Bachs vierstimmige Choralgesänge
!!!XEN: Four-part Chorales
!!!OTL: 63. Gott, der du selber bist das Licht
!!!SCT: BWV 316
!!!SCA: Thematisch-systematisches Verzeichnis der musikalischen Werke Johann Sebastian Bach: Bach-Werke-Verzeichnis (Schmieder)
!!!YOR: Bach Gesellschaft Edition xxxix
!!!ENC: Steven Rasmussen
!!!CDT: 1685/3//-1750/7/28/
!!!OCY: Deutschland
!!!YEC: Copyright (c) 1994, 2000 Center for Computer Assisted Research in the Humanities
!!!YEM: Rights to all derivative editions reserved
!!!YEN: United States of America
**kern	**silbe	**kern	**kern	**kern
*I:[SOPRANO]	*I:[SOPRANO]	*I:[ALTO]	*I:[TENORE]	*I:[BASSO]
*>[A,A,B,A,A,B,C]	*	*>[A,A,B]	*>[A,A,B]	*>[A,A,B]
*>A	*	*>A	*>A	*>A
*clefG2	*	*clefG2	*clefGv2	*clefF4
*k[b-e-]	*	*k[b-e-]	*k[b-e-]	*k[b-e-]
*g:	*	*g:	*g:	*g:
*M4/4	*	*M4/4	*M4/4	*M4/4
4dd	Gott,nach-	4g	8B-L	8GGL
.	.	.	8cJ	8AAJ
=1	=1	=1	=1	=1
4g	der-dem	4g	4d	4BB-
8aL	dudurch	8f#L	8cL	8AAL
8b-J	.	8gJ	8dJ	8GGJ
4cc	sel-dei-	4.a	8e-L	4FF#
.	.	.	8dJ	.
4b-	-ber-ne	.	4d	4GG
.	.	8g	.	.
=2	=2	=2	=2	=2
4a	bistgro-	8gL	8e-L	8CL
.	.	16f#L	8cJ	8AAJ
.	.	16enJJ	.	.
4a	das-sse	4f#	8AL	4D
.	.	.	16dL	.
.	.	.	16cJJ	.
4g;	Licht,Macht	4d;	4B-;	4GG;
4cc	dessder	4g	8cL	4EEn
.	.	.	8B-J	.
=3	=3	=3	=3	=3
4cc	GÃ¼t'hel-	8fL	8AL	8FFL
.	.	8enJ	8B-J	8GGJ
4cc	und-le	4f	8cL	8AAL
.	.	.	8AJ	8FFJ
4dd	Treu-Tag	4f	4B-	(8BB-
.	.	.	.	4B-)
4cc	-edie	4f	4c	.
.	.	.	.	8A
=4	=4	=4	=4	=4
4dd	stir-fin-	(8b-	8B-L	8GL
.	.	4dd)	8AJ	8FJ
4een	-bet-stre	.	4G	4En
.	.	8cc#	.	.
4ff;	nicht,Nacht	4dd;	4A;	4D;
4dd	dirso	4b-	4g	4GG
=5	=5	=5	=5	=5
4cc	seikrÃ¤f-	4a	8gL	4AA
.	.	.	8f#J	.
4b-	itzt-tig	8dL	4g	8BB-L
.	.	8enJ	.	8CJ
4a	Lobhat	4f#	8dL	4D
.	.	.	8cJ	.
4g	ge-ver-	4g	4B-	8E-L
.	.	.	.	8DJ
=6	=6	=6	=6	=6
2a	-sun--drun-	4g	8e-L	4C
.	.	.	8c	.
.	.	4f#	8A	4D
.	.	.	16dL	.
.	.	.	16cJJ	.
4g;	-gen:-gen,	4d;	4B-;	4GG;
*>B	*	*	*	*
=:|!	=:|!	=:|!	=:|!	=:|!
*>C	*	*>B	*>B	*>B
4a	und	4fn	4c	8FL
.	.	.	.	8E-J
=7	=7	=7	=7	=7
4b-	dei-	(8f	4d	4D
.	.	4b-)	.	.
4cc	-ne	.	4e-	4C
.	.	8a	.	.
4dd	Gnad'	4b-	4f	(8BB-
.	.	.	.	4B-)
4ee-	und	4cc	4f	.
.	.	.	.	8A
=8	=8	=8	=8	=8
4dd	Wun-	(8cc	4f	8B-L
.	.	4b-)	.	8DJ
4cc	-der-	.	8gL	8E-L
.	.	8a	16fL	8FJ
.	.	.	16e-JJ	.
4b-;	-tat	4f;	4d;	4BB-;
4dd	mich,	4f	4d	4BB-
=9	=9	=9	=9	=9
4ff	da	8fL	8cL	8AAL
.	.	8aJ	8dJ	8FFJ
4ee-	ich	8gL	8B-L	8GGL
.	.	8fJ	8cJ	8AAJ
4dd	schlief,	4f	4d	4BB-
8gL	er-	4e-	8cL	4C
8aJ	.	.	8F#J	.
=10	=10	=10	=10	=10
4b-	-hal-	(8d	8GL	8BB-L
.	.	4g)	8dJ	8GGJ
4a	-ten	.	8.dL	4D
.	.	8f#	.	.
.	.	.	16cJk	.
4g;	hat.	4d;	4Bn;	4GG;
==|!	==|!	==|!	==|!	==|!
*-	*-	*-	*-	*-
!!!RWG: Key is interpreted using the Humdrum key tool.
!!!END: 1994/06/06
!!!EMD: Converted from MuseData to Humdrum Dec 19, 2000, by Andreas Kornstaedt using muse2kern.
!!!EED: Craig Stuart Sapp
!!!EEV: 2024/03/31
!!!ONB: Some non-unicode characters
